X: 56
T:Lass of Richmond Hill,The. JMP.056
M:2/4
L:1/8
Q:200
C:"61"
S:John Miller MS. Perth, 1799.(for the fife)
R:Air
O:Scotland
A:Perth
H:1799
Z:vmp.C. Graebe
K:D major
A/A/ | Addd | e/d/c/d/ e>g | fdce | d2 cB |!
Addd | e/d/c/d/ e>d | cABG | A3 ||! 
d | cAAd |cAAd | cdef | f2ed | cAAd | cAa>d | cdec | d3 ||!
 A | Adde | f3 d | ceef | g3e | fdec | dBAG | FAEc | D3 |]
